svg/set/2ED/80.svg

<?xml version="1.0" encoding="UTF-8" standalone="no"?>
<svg xmlns="http://www.w3.org/2000/svg" version="1.1" width="600" height="510.36029">
  <path style="fill:#808080" d="m 419.38886,0 -239.82393,0 -1.14828,0.15311 c -16.15242,1.74793 -38.56933,13.40932 -46.04589,37.9314 L 35.37967,65.09452 34.43553,65.4385 C 21.23035,70.52919 0,87.57472 0,118.76956 c 0,5.57552 0.68896,11.61035 2.19448,18.14277 l 91.50488,341.4464 2.48793,3.38104 c 10.30897,13.80484 35.53278,34.93312 64.29073,26.7676 0,0 128.92593,-35.48174 139.59215,-38.42899 10.61518,2.94725 139.74525,38.48003 139.74525,38.48003 28.56657,8.11448 53.72658,-13.0138 64.09935,-26.81864 l 2.48793,-3.34276 91.35178,-340.83399 C 599.29827,130.8775 600,124.65129 600,118.9737 600,87.52368 578.82067,70.52919 565.66653,65.4385 l -0.95639,-0.34398 c 0,0 -76.59004,-21.33242 -96.97833,-27.01001 C 460.25525,13.56243 437.82558,1.90104 421.68592,0.15311 L 420.53764,0 419.38937,0 z"/>
  <path d="M 180.71289 21.779297 C 180.71289 21.779297 151.35547 24.918456 151.35547 55.322266 L 42.255859 85.775391 C 42.255859 85.775391 14.952357 96.237938 23.373047 131.92383 L 113.57812 468.6875 C 113.57812 468.6875 132.47275 493.89859 154.49414 487.57031 L 300.08203 447.54688 L 445.60742 487.57031 C 467.62881 493.89859 486.52539 468.6875 486.52539 468.6875 L 576.72852 131.92383 C 585.14921 96.237938 557.89648 85.775391 557.89648 85.775391 L 448.74609 55.322266 C 448.74609 24.918456 419.33789 21.779297 419.33789 21.779297 L 180.71289 21.779297 z M 181.70898 34.345703 L 418.39453 34.345703 C 419.78522 34.588113 424.02048 35.5337 427.96289 38.1875 C 433.53842 41.91302 436.14062 47.348126 436.14062 55.322266 L 436.14062 64.890625 C 436.14063 64.890625 551.96326 97.196538 553.66016 97.642578 C 556.64568 99.084308 565.76953 104.51791 565.76953 119.01172 C 565.76953 121.95896 565.35965 125.25195 564.51758 128.99023 C 564.36448 129.58989 476.50917 457.47379 475.05469 462.75586 C 471.17607 467.14483 459.80734 478.55048 449.03906 475.46289 L 300.08203 434.49414 L 151.0625 475.46289 C 140.29422 478.55048 128.88723 467.14483 125.04688 462.75586 C 123.60515 457.47379 35.788124 129.5904 35.583984 128.99023 C 34.741914 125.25195 34.333984 121.95896 34.333984 119.01172 C 34.333984 104.51791 43.456798 99.084308 46.455078 97.642578 C 48.139218 97.196028 163.92188 64.890625 163.92188 64.890625 L 163.92188 55.322266 C 163.92186 47.348126 166.56315 41.91302 172.13867 38.1875 C 176.13212 35.5337 180.31829 34.587603 181.70898 34.345703 z M 183.11133 50.089844 C 183.11133 50.089844 178.17383 52.182358 178.17383 56.367188 L 178.17383 404.69141 C 178.17383 404.69141 178.17374 411.7207 183.11133 411.7207 L 417.39844 411.7207 C 417.39844 411.7207 422.97461 410.33072 422.97461 404.69141 L 422.97461 56.367188 C 422.97461 56.367188 422.33603 50.089844 417.39844 50.089844 L 183.11133 50.089844 z M 438.73047 81.541016 L 438.73047 405.39258 C 438.73047 405.39258 435.8858 426.36719 419.14648 426.36719 L 328.18945 426.36719 L 449.89453 459.96094 C 449.89453 459.96094 456.87432 463.45804 460.35742 455.77734 L 549.92188 123.50391 C 549.92188 123.50391 553.40482 113.04219 545.03516 110.24805 L 438.73047 81.541016 z M 161.42188 82.242188 L 55.066406 110.94922 C 46.696746 113.7306 50.193359 124.25586 50.193359 124.25586 L 139.69336 456.47852 C 143.24026 464.14645 150.20703 460.66211 150.20703 460.66211 L 271.91211 427.12109 L 181.01953 427.12109 C 164.16538 427.12109 161.42186 406.08203 161.42188 406.08203 L 161.42188 82.242188 z M 372.12891 130.75391 C 374.12447 130.75411 375.77024 131.20143 377.06641 132.0957 C 378.36225 132.99033 379.0096 139.91706 379.00977 152.87695 L 379.00977 168.73047 L 379.00977 259.34961 C 379.0096 279.68421 380.70448 294.58804 384.09375 304.05859 C 387.48266 313.52921 395.45696 320.25683 408.01562 324.24219 C 407.41914 326.83422 405.37602 329.32644 401.88672 331.7207 C 398.39705 334.11496 394.26079 335.3125 389.47852 335.3125 C 386.68554 335.3125 384.14331 334.96337 381.84961 334.26367 C 379.55557 333.56399 376.21492 331.71712 371.82812 328.72656 C 367.44102 325.73602 363.90212 321.20153 361.21289 315.12305 C 358.52338 309.04462 355.6829 306.30413 352.68945 306.90039 C 345.91112 313.08231 338.48423 319.26258 330.41016 325.44141 C 322.33586 331.62027 313.61423 335.30915 304.24414 336.50781 C 294.87386 337.70645 284.60648 339.10312 273.44141 340.69727 C 266.2616 340.69726 259.53115 339.35061 253.25195 336.6582 C 246.97266 333.96579 240.5433 329.43043 233.96289 323.05078 C 227.38244 316.67116 222.59602 307.10025 219.60547 294.33789 C 216.61491 281.57562 215.12108 261.23997 215.12109 233.33008 L 215.12109 213.58789 L 215.12109 200.13477 C 215.12108 186.17698 215.01954 177.75359 214.81836 174.86328 C 214.61759 171.97329 213.92019 167.88615 212.72461 162.60156 C 211.529 157.31731 207.79097 152.98107 201.51172 149.5918 C 195.23248 146.20289 192.09377 142.41488 192.09375 138.22852 C 201.85946 138.22872 210.13284 137.63136 216.91406 136.43555 C 223.69527 135.24014 230.27377 133.94262 236.65039 132.54297 C 238.24451 132.54318 239.88941 132.94145 241.58398 133.73828 C 243.2785 134.53554 244.12497 137.92339 244.125 143.9043 C 244.12497 149.88559 244.02575 155.96672 243.82812 162.14844 C 243.63031 168.3305 243.43124 174.21166 243.23047 179.79102 C 243.23044 185.97307 243.18063 192.05419 243.08008 198.03516 C 242.98005 204.01639 242.92959 209.99754 242.92969 215.97852 C 242.92966 248.87775 245.87207 273.40333 251.75586 289.55469 C 257.63956 305.70615 266.11294 314.43057 277.17773 315.72656 C 288.2424 317.02258 295.17196 317.66994 297.96484 317.66992 C 307.73044 317.66994 317.19853 315.82507 326.37109 312.13477 C 335.54342 308.44452 342.52211 302.31338 347.30469 293.74023 C 349.70187 287.95996 351.4976 281.48146 352.69336 274.30469 C 353.88883 267.12804 354.48619 258.05449 354.48633 247.08398 C 354.48619 237.91467 354.03792 228.64374 353.14062 219.27344 C 352.24303 209.90336 351.64566 202.07735 351.34766 195.79492 C 351.04942 189.51277 350.90029 184.08181 350.90039 179.5 L 350.90039 173.2207 C 350.90026 169.63099 350.80079 166.8377 350.59961 164.8418 C 350.39874 162.84625 349.84855 160.20488 348.95117 156.91602 C 348.05357 153.6275 345.46221 149.93947 341.17578 145.85352 C 336.88909 141.76794 334.74597 139.12658 334.74609 137.92773 C 334.74597 136.9301 335.39326 136.13166 336.68945 135.53516 C 337.98533 134.93908 343.07 133.99348 351.94141 132.69727 C 360.81252 131.40147 367.54101 130.75411 372.12891 130.75391 z " id="path4"/>
</svg>

<?xml version="1.0" encoding="UTF-8" standalone="no"?>
<svg
   version="1.1"
   width="600"
   height="510.36029"
   id="svg1"
   xmlns="http://www.w3.org/2000/svg"
   xmlns:svg="http://www.w3.org/2000/svg">
  <defs
     id="defs1" />
  <path
     style="fill:#808080"
     d="M 419.38886,0 H 179.56493 l -1.14828,0.15311 c -16.15242,1.74793 -38.56933,13.40932 -46.04589,37.9314 L 35.37967,65.09452 34.43553,65.4385 C 21.23035,70.52919 0,87.57472 0,118.76956 c 0,5.57552 0.68896,11.61035 2.19448,18.14277 l 91.50488,341.4464 2.48793,3.38104 c 10.30897,13.80484 35.53278,34.93312 64.29073,26.7676 0,0 128.92593,-35.48174 139.59215,-38.42899 10.61518,2.94725 139.74525,38.48003 139.74525,38.48003 28.56657,8.11448 53.72658,-13.0138 64.09935,-26.81864 l 2.48793,-3.34276 91.35178,-340.83399 C 599.29827,130.8775 600,124.65129 600,118.9737 600,87.52368 578.82067,70.52919 565.66653,65.4385 l -0.95639,-0.34398 c 0,0 -76.59004,-21.33242 -96.97833,-27.01001 C 460.25525,13.56243 437.82558,1.90104 421.68592,0.15311 L 420.53764,0 h -1.14827 z"
     id="path1" />
  <path
     d="m 180.71289,21.779297 c 0,0 -29.35742,3.139159 -29.35742,33.542969 L 42.255859,85.775391 c 0,0 -27.303502,10.462547 -18.882812,46.148439 L 113.57812,468.6875 c 0,0 18.89463,25.21109 40.91602,18.88281 l 145.58789,-40.02343 145.52539,40.02343 c 22.02139,6.32828 40.91797,-18.88281 40.91797,-18.88281 L 576.72852,131.92383 C 585.14921,96.237938 557.89648,85.775391 557.89648,85.775391 L 448.74609,55.322266 c 0,-30.40381 -29.4082,-33.542969 -29.4082,-33.542969 z m 0.99609,12.566406 h 236.68555 c 1.39069,0.24241 5.62595,1.187997 9.56836,3.841797 5.57553,3.72552 8.17773,9.160626 8.17773,17.134766 v 9.568359 c 10e-6,0 115.82264,32.305913 117.51954,32.751953 2.98552,1.44173 12.10937,6.875332 12.10937,21.369142 0,2.94724 -0.40988,6.24023 -1.25195,9.97851 -0.1531,0.59966 -88.00841,328.48356 -89.46289,333.76563 -3.87862,4.38897 -15.24735,15.79462 -26.01563,12.70703 L 300.08203,434.49414 151.0625,475.46289 c -10.76828,3.08759 -22.17527,-8.31806 -26.01562,-12.70703 -1.44173,-5.28207 -89.258756,-333.16546 -89.462896,-333.76563 -0.84207,-3.73828 -1.25,-7.03127 -1.25,-9.97851 0,-14.49381 9.122814,-19.927412 12.121094,-21.369142 1.68414,-0.44655 117.466802,-32.751953 117.466802,-32.751953 v -9.568359 c -2e-5,-7.97414 2.64127,-13.409246 8.21679,-17.134766 3.99345,-2.6538 8.17962,-3.599897 9.57031,-3.841797 z m 1.40235,15.744141 c 0,0 -4.9375,2.092514 -4.9375,6.277344 V 404.69141 c 0,0 -9e-5,7.02929 4.9375,7.02929 h 234.28711 c 0,0 5.57617,-1.38998 5.57617,-7.02929 V 56.367188 c 0,0 -0.63858,-6.277344 -5.57617,-6.277344 z M 438.73047,81.541016 V 405.39258 c 0,0 -2.84467,20.97461 -19.58399,20.97461 h -90.95703 l 121.70508,33.59375 c 0,0 6.97979,3.4971 10.46289,-4.1836 l 89.56446,-332.27343 c 0,0 3.48294,-10.46172 -4.88672,-13.25586 z M 161.42188,82.242188 55.066406,110.94922 c -8.36966,2.78138 -4.873047,13.30664 -4.873047,13.30664 l 89.500001,332.22266 c 3.5469,7.66793 10.51367,4.18359 10.51367,4.18359 l 121.70508,-33.54102 h -90.89258 c -16.85415,0 -19.59767,-21.03906 -19.59765,-21.03906 z m 210.70703,48.511722 c 1.99556,2e-4 3.64133,0.44752 4.9375,1.34179 1.29584,0.89463 1.94319,7.82136 1.94336,20.78125 v 15.85352 90.61914 c -1.7e-4,20.3346 1.69471,35.23843 5.08398,44.70898 3.38891,9.47062 11.36321,16.19824 23.92187,20.1836 -0.59648,2.59203 -2.6396,5.08425 -6.1289,7.47851 -3.48967,2.39426 -7.62593,3.5918 -12.4082,3.5918 -2.79298,0 -5.33521,-0.34913 -7.62891,-1.04883 -2.29404,-0.69968 -5.63469,-2.54655 -10.02149,-5.53711 -4.3871,-2.99054 -7.926,-7.52503 -10.61523,-13.60351 -2.68951,-6.07843 -5.52999,-8.81892 -8.52344,-8.22266 -6.77833,6.18192 -14.20522,12.36219 -22.27929,18.54102 -8.0743,6.17886 -16.79593,9.86774 -26.16602,11.0664 -9.37028,1.19864 -19.63766,2.59531 -30.80273,4.18946 -7.17981,-10e-6 -13.91026,-1.34666 -20.18946,-4.03907 -6.27929,-2.69241 -12.70865,-7.22777 -19.28906,-13.60742 -6.58045,-6.37962 -11.36687,-15.95053 -14.35742,-28.71289 -2.99056,-12.76227 -4.48439,-33.09792 -4.48438,-61.00781 v -19.74219 -13.45312 c -1e-5,-13.95779 -0.10155,-22.38118 -0.30273,-25.27149 -0.20077,-2.88999 -0.89817,-6.97713 -2.09375,-12.26172 -1.19561,-5.28425 -4.93364,-9.62049 -11.21289,-13.00976 -6.27924,-3.38891 -9.41795,-7.17692 -9.41797,-11.36328 9.76571,2e-4 18.03909,-0.59716 24.82031,-1.79297 6.78121,-1.19541 13.35971,-2.49293 19.73633,-3.89258 1.59412,2.1e-4 3.23902,0.39848 4.93359,1.19531 1.69452,0.79726 2.54099,4.18511 2.54102,10.16602 -3e-5,5.98129 -0.0993,12.06242 -0.29688,18.24414 -0.19781,6.18206 -0.39688,12.06322 -0.59765,17.64258 -3e-5,6.18205 -0.0498,12.26317 -0.15039,18.24414 -0.10003,5.98123 -0.15049,11.96238 -0.15039,17.94336 -3e-5,32.89923 2.94238,57.42481 8.82617,73.57617 5.8837,16.15146 14.35708,24.87588 25.42187,26.17187 11.06467,1.29602 17.99423,1.94338 20.78711,1.94336 9.7656,2e-5 19.23369,-1.84485 28.40625,-5.53515 9.17233,-3.69025 16.15102,-9.82139 20.9336,-18.39454 2.39718,-5.78027 4.19291,-12.25877 5.38867,-19.43554 1.19547,-7.17665 1.79283,-16.2502 1.79297,-27.22071 -1.4e-4,-9.16931 -0.44841,-18.44024 -1.34571,-27.81054 -0.89759,-9.37008 -1.49496,-17.19609 -1.79296,-23.47852 -0.29824,-6.28215 -0.44737,-11.71311 -0.44727,-16.29492 v -6.2793 c -1.3e-4,-3.58971 -0.0996,-6.383 -0.30078,-8.3789 -0.20087,-1.99555 -0.75106,-4.63692 -1.64844,-7.92578 -0.8976,-3.28852 -3.48896,-6.97655 -7.77539,-11.0625 -4.28669,-4.08558 -6.42981,-6.72694 -6.42969,-7.92579 -1.2e-4,-0.99763 0.64717,-1.79607 1.94336,-2.39257 1.29588,-0.59608 6.38055,-1.54168 15.25196,-2.83789 8.87111,-1.2958 15.5996,-1.94316 20.1875,-1.94336 z"
     id="path4" />
</svg>
